Numix/16/emotes/face-ninja.svg

<?xml version="1.0" encoding="UTF-8" standalone="no"?>
<svg
   xmlns:dc="http://purl.org/dc/elements/1.1/"
   xmlns:cc="http://creativecommons.org/ns#"
   xmlns:rdf="http://www.w3.org/1999/02/22-rdf-syntax-ns#"
   xmlns:svg="http://www.w3.org/2000/svg"
   xmlns="http://www.w3.org/2000/svg"
   xmlns:sodipodi="http://sodipodi.sourceforge.net/DTD/sodipodi-0.dtd"
   xmlns:inkscape="http://www.inkscape.org/namespaces/inkscape"
   width="16px"
   height="16px"
   viewBox="0 0 12 12"
   version="1.1"
   id="svg3328"
   inkscape:version="0.91 r"
   sodipodi:docname="face-ninja.svg">
  <metadata
     id="metadata3347">
    <rdf:RDF>
      <cc:Work
         rdf:about="">
        <dc:format>image/svg+xml</dc:format>
        <dc:type
           rdf:resource="http://purl.org/dc/dcmitype/StillImage" />
      </cc:Work>
    </rdf:RDF>
  </metadata>
  <defs
     id="defs3345" />
  <sodipodi:namedview
     pagecolor="#ffffff"
     bordercolor="#666666"
     borderopacity="1"
     objecttolerance="10"
     gridtolerance="10"
     guidetolerance="10"
     inkscape:pageopacity="0"
     inkscape:pageshadow="2"
     inkscape:window-width="640"
     inkscape:window-height="480"
     id="namedview3343" />
  <g
     id="surface1">
    <path
       style=" stroke:none;fill-rule:nonzero;fill:rgb(100%,85.098039%,36.078431%);fill-opacity:1;"
       d="M 11.25 6 C 11.25 8.484375 8.898438 10.5 6 10.5 C 3.101562 10.5 0.75 8.484375 0.75 6 C 0.75 3.515625 3.097656 1.5 6 1.5 C 8.902344 1.5 11.25 3.515625 11.25 6 Z M 11.25 6 "
       id="path3331" />
    <path
       style=" stroke:none;fill-rule:nonzero;fill:rgb(39.607843%,39.607843%,39.607843%);fill-opacity:1;"
       d="M 4.921875 4.921875 C 4.921875 5.363281 4.566406 5.71875 4.125 5.71875 C 3.683594 5.71875 3.328125 5.363281 3.328125 4.921875 C 3.328125 4.480469 3.683594 4.125 4.125 4.125 C 4.566406 4.125 4.921875 4.480469 4.921875 4.921875 Z M 4.921875 4.921875 "
       id="path3333" />
    <path
       style=" stroke:none;fill-rule:nonzero;fill:rgb(39.607843%,39.607843%,39.607843%);fill-opacity:1;"
       d="M 8.671875 4.921875 C 8.671875 5.363281 8.316406 5.71875 7.875 5.71875 C 7.433594 5.71875 7.078125 5.363281 7.078125 4.921875 C 7.078125 4.480469 7.433594 4.125 7.875 4.125 C 8.316406 4.125 8.671875 4.480469 8.671875 4.921875 Z M 8.671875 4.921875 "
       id="path3335" />
    <path
       style=" stroke:none;fill-rule:nonzero;fill:rgb(15.686275%,15.686275%,15.686275%);fill-opacity:1;"
       d="M 6.152344 1.503906 C 3.875 1.445312 1.816406 2.660156 1.058594 4.5 L 10.945312 4.5 C 10.222656 2.75 8.320312 1.554688 6.152344 1.503906 Z M 6.152344 1.503906 "
       id="path3337" />
    <path
       style=" stroke:none;fill-rule:nonzero;fill:rgb(15.686275%,15.686275%,15.686275%);fill-opacity:1;"
       d="M 0.773438 6.375 C 0.996094 8.683594 3.25 10.5 6 10.5 C 8.75 10.5 11.003906 8.683594 11.226562 6.375 Z M 0.773438 6.375 "
       id="path3339" />
    <path
       style=" stroke:none;fill-rule:nonzero;fill:rgb(23.921569%,23.921569%,23.921569%);fill-opacity:1;"
       d="M 5.015625 7.875 L 6.984375 7.875 C 7.0625 7.875 7.125 7.960938 7.125 8.0625 L 7.125 8.4375 C 7.125 8.539062 7.0625 8.625 6.984375 8.625 L 5.015625 8.625 C 4.9375 8.625 4.875 8.539062 4.875 8.4375 L 4.875 8.0625 C 4.875 7.960938 4.9375 7.875 5.015625 7.875 Z M 5.015625 7.875 "
       id="path3341" />
  </g>
</svg>

<svg xmlns="http://www.w3.org/2000/svg" width="16" height="16" viewBox="0 0 12 12">
 <g>
  <path d="m 11.25 6 c 0 2.484 -2.352 4.5 -5.25 4.5 c -2.898 0 -5.25 -2.02 -5.25 -4.5 c 0 -2.484 2.348 -4.5 5.25 -4.5 c 2.902 0 5.25 2.02 5.25 4.5 m 0 0" style="fill:#ffd85b;fill-opacity:1;stroke:none;fill-rule:nonzero"/>
  <path d="m 4.922 4.922 c 0 0.441 -0.355 0.797 -0.797 0.797 c -0.441 0 -0.797 -0.355 -0.797 -0.797 c 0 -0.441 0.355 -0.797 0.797 -0.797 c 0.441 0 0.797 0.355 0.797 0.797 m 0 0" style="fill:#646464;fill-opacity:1;stroke:none;fill-rule:nonzero"/>
  <path d="m 8.672 4.922 c 0 0.441 -0.355 0.797 -0.797 0.797 c -0.441 0 -0.797 -0.355 -0.797 -0.797 c 0 -0.441 0.355 -0.797 0.797 -0.797 c 0.441 0 0.797 0.355 0.797 0.797 m 0 0" style="fill:#646464;fill-opacity:1;stroke:none;fill-rule:nonzero"/>
  <path d="m 6.152 1.504 c -2.277 -0.059 -4.336 1.156 -5.094 2.996 l 9.887 0 c -0.723 -1.75 -2.625 -2.945 -4.793 -2.996 m 0 0" style="fill:#282828;fill-opacity:1;stroke:none;fill-rule:nonzero"/>
  <path d="m 0.773 6.375 c 0.223 2.309 2.477 4.125 5.227 4.125 c 2.75 0 5 -1.816 5.227 -4.125 m -10.453 0" style="fill:#282828;fill-opacity:1;stroke:none;fill-rule:nonzero"/>
  <path d="m 5.02 7.875 l 1.969 0 c 0.078 0 0.141 0.086 0.141 0.188 l 0 0.375 c 0 0.102 -0.063 0.188 -0.141 0.188 l -1.969 0 c -0.078 0 -0.141 -0.086 -0.141 -0.188 l 0 -0.375 c 0 -0.102 0.063 -0.188 0.141 -0.188 m 0 0" style="fill:#3d3d3d;fill-opacity:1;stroke:none;fill-rule:nonzero"/>
 </g>
</svg>
